static/img/kroki/b09db7d3e827920ae669dfd9e1c561f4.svg

<?xml version="1.0" encoding="us-ascii" standalone="no"?><svg xmlns="http://www.w3.org/2000/svg" xmlns:xlink="http://www.w3.org/1999/xlink" contentStyleType="text/css" height="954px" preserveAspectRatio="none" style="width:558px;height:954px;" version="1.1" viewBox="0 0 558 954" width="558px" zoomAndPan="magnify"><defs/><g><!--class azure_express_route_ports_location_bandwidths--><g id="elem_azure_express_route_ports_location_bandwidths"><rect codeLine="23" fill="#3D176E" height="100.3828" id="azure_express_route_ports_location_bandwidths" rx="2.5" ry="2.5" style="stroke:#000D19;stroke-width:0.5;" width="446" x="56" y="846.82"/><ellipse cx="71" cy="866.7145" fill="#ADD1B2" rx="11" ry="11" style="stroke:#181818;stroke-width:1.0;"/><path d="M73.9688,872.3552 Q73.3906,872.652 72.75,872.7927 Q72.1094,872.9489 71.4063,872.9489 Q68.9063,872.9489 67.5781,871.3083 Q66.2656,869.652 66.2656,866.527 Q66.2656,863.402 67.5781,861.7458 Q68.9063,860.0895 71.4063,860.0895 Q72.1094,860.0895 72.75,860.2458 Q73.4063,860.402 73.9688,860.6989 L73.9688,863.4177 Q73.3438,862.8395 72.75,862.5739 Q72.1563,862.2927 71.5313,862.2927 Q70.1875,862.2927 69.5,863.3708 Q68.8125,864.4333 68.8125,866.527 Q68.8125,868.6208 69.5,869.6989 Q70.1875,870.7614 71.5313,870.7614 Q72.1563,870.7614 72.75,870.4958 Q73.3438,870.2145 73.9688,869.6364 L73.9688,872.3552 Z " fill="#000000"/><text fill="#D9B8FF" font-family="Helvetica" font-size="17" lengthAdjust="spacing" textLength="404" x="90" y="872.5998">azure_express_route_ports_location_bandwidths</text><line style="stroke:#000D19;stroke-width:0.5;" x1="57" x2="501" y1="886.6091" y2="886.6091"/><text fill="#D9B8FF" font-family="sans-serif" font-size="14" font-weight="bold" lengthAdjust="spacing" textLength="89" x="67" y="908.6042">offer_name</text><text fill="#D9B8FF" font-family="sans-serif" font-size="14" lengthAdjust="spacing" textLength="48" x="156" y="908.6042">: string</text><text fill="#D9B8FF" font-family="sans-serif" font-size="14" font-weight="bold" lengthAdjust="spacing" textLength="109" x="67" y="934.9011">value_in_gbps</text><text fill="#D9B8FF" font-family="sans-serif" font-size="14" lengthAdjust="spacing" textLength="44" x="176" y="934.9011">: int64</text></g><!--class azure_network_express_route_ports_location--><g id="elem_azure_network_express_route_ports_location"><rect codeLine="27" fill="#3D176E" height="126.6797" id="azure_network_express_route_ports_location" rx="2.5" ry="2.5" style="stroke:#000D19;stroke-width:0.5;" width="544" x="7" y="660.14"/><ellipse cx="81.25" cy="680.0345" fill="#ADD1B2" rx="11" ry="11" style="stroke:#181818;stroke-width:1.0;"/><path d="M84.2188,685.6752 Q83.6406,685.972 83,686.1127 Q82.3594,686.2689 81.6563,686.2689 Q79.1563,686.2689 77.8281,684.6283 Q76.5156,682.972 76.5156,679.847 Q76.5156,676.722 77.8281,675.0658 Q79.1563,673.4095 81.6563,673.4095 Q82.3594,673.4095 83,673.5658 Q83.6563,673.722 84.2188,674.0189 L84.2188,676.7377 Q83.5938,676.1595 83,675.8939 Q82.4063,675.6127 81.7813,675.6127 Q80.4375,675.6127 79.75,676.6908 Q79.0625,677.7533 79.0625,679.847 Q79.0625,681.9408 79.75,683.0189 Q80.4375,684.0814 81.7813,684.0814 Q82.4063,684.0814 83,683.8158 Q83.5938,683.5345 84.2188,682.9564 L84.2188,685.6752 Z " fill="#000000"/><text fill="#D9B8FF" font-family="Helvetica" font-size="17" lengthAdjust="spacing" textLength="377" x="106.75" y="685.9198">azure_network_express_route_ports_location</text><line style="stroke:#000D19;stroke-width:0.5;" x1="8" x2="550" y1="699.9291" y2="699.9291"/><text fill="#D9B8FF" font-family="sans-serif" font-size="14" font-weight="bold" lengthAdjust="spacing" textLength="64" x="18" y="721.9242">address</text><text fill="#D9B8FF" font-family="sans-serif" font-size="14" lengthAdjust="spacing" textLength="48" x="82" y="721.9242">: string</text><text fill="#D9B8FF" font-family="sans-serif" font-size="14" font-weight="bold" lengthAdjust="spacing" textLength="167" x="18" y="748.2211">available_bandwidths</text><text fill="#D9B8FF" font-family="sans-serif" font-size="14" lengthAdjust="spacing" textLength="355" x="185" y="748.2211">: azure_express_route_ports_location_bandwidths[]</text><text fill="#D9B8FF" font-family="sans-serif" font-size="14" font-weight="bold" lengthAdjust="spacing" textLength="59" x="18" y="774.5179">contact</text><text fill="#D9B8FF" font-family="sans-serif" font-size="14" lengthAdjust="spacing" textLength="48" x="77" y="774.5179">: string</text></g><!--class microsoft_resource--><g id="elem_microsoft_resource"><rect codeLine="32" fill="#3D176E" height="100.3828" id="microsoft_resource" rx="2.5" ry="2.5" style="stroke:#000D19;stroke-width:0.5;" width="214" x="52" y="438.75"/><ellipse cx="73.3" cy="458.6445" fill="#ADD1B2" rx="11" ry="11" style="stroke:#181818;stroke-width:1.0;"/><path d="M76.2688,464.2852 Q75.6906,464.582 75.05,464.7227 Q74.4094,464.8789 73.7063,464.8789 Q71.2063,464.8789 69.8781,463.2383 Q68.5656,461.582 68.5656,458.457 Q68.5656,455.332 69.8781,453.6758 Q71.2063,452.0195 73.7063,452.0195 Q74.4094,452.0195 75.05,452.1758 Q75.7063,452.332 76.2688,452.6289 L76.2688,455.3477 Q75.6438,454.7695 75.05,454.5039 Q74.4563,454.2227 73.8313,454.2227 Q72.4875,454.2227 71.8,455.3008 Q71.1125,456.3633 71.1125,458.457 Q71.1125,460.5508 71.8,461.6289 Q72.4875,462.6914 73.8313,462.6914 Q74.4563,462.6914 75.05,462.4258 Q75.6438,462.1445 76.2688,461.5664 L76.2688,464.2852 Z " fill="#000000"/><text fill="#D9B8FF" font-family="Helvetica" font-size="17" lengthAdjust="spacing" textLength="158" x="93.7" y="464.5298">microsoft_resource</text><line style="stroke:#000D19;stroke-width:0.5;" x1="53" x2="265" y1="478.5391" y2="478.5391"/><text fill="#D9B8FF" font-family="sans-serif" font-size="14" font-weight="bold" lengthAdjust="spacing" textLength="35" x="63" y="500.5342">etag</text><text fill="#D9B8FF" font-family="sans-serif" font-size="14" lengthAdjust="spacing" textLength="48" x="98" y="500.5342">: string</text><text fill="#D9B8FF" font-family="sans-serif" font-size="14" font-weight="bold" lengthAdjust="spacing" textLength="144" x="63" y="526.8311">provisioning_state</text><text fill="#D9B8FF" font-family="sans-serif" font-size="14" lengthAdjust="spacing" textLength="48" x="207" y="526.8311">: string</text></g><!--class phantom_resource--><g id="elem_phantom_resource"><rect codeLine="36" fill="#3D176E" height="39.7891" id="phantom_resource" rx="2.5" ry="2.5" style="stroke:#000D19;stroke-width:0.5;" width="198" x="301" y="469.05"/><ellipse cx="316" cy="488.9445" fill="#ADD1B2" rx="11" ry="11" style="stroke:#181818;stroke-width:1.0;"/><path d="M318.9688,494.5852 Q318.3906,494.882 317.75,495.0227 Q317.1094,495.1789 316.4063,495.1789 Q313.9063,495.1789 312.5781,493.5383 Q311.2656,491.882 311.2656,488.757 Q311.2656,485.632 312.5781,483.9758 Q313.9063,482.3195 316.4063,482.3195 Q317.1094,482.3195 317.75,482.4758 Q318.4063,482.632 318.9688,482.9289 L318.9688,485.6477 Q318.3438,485.0695 317.75,484.8039 Q317.1563,484.5227 316.5313,484.5227 Q315.1875,484.5227 314.5,485.6008 Q313.8125,486.6633 313.8125,488.757 Q313.8125,490.8508 314.5,491.9289 Q315.1875,492.9914 316.5313,492.9914 Q317.1563,492.9914 317.75,492.7258 Q318.3438,492.4445 318.9688,491.8664 L318.9688,494.5852 Z " fill="#000000"/><text fill="#D9B8FF" font-family="Helvetica" font-size="17" lengthAdjust="spacing" textLength="156" x="335" y="494.8298">phantom_resource</text></g><!--class resource--><g id="elem_resource"><rect codeLine="39" fill="#3D176E" height="310.7578" id="resource" rx="2.5" ry="2.5" style="stroke:#000D19;stroke-width:0.5;" width="227" x="165.5" y="7"/><ellipse cx="234.25" cy="26.8945" fill="#ADD1B2" rx="11" ry="11" style="stroke:#181818;stroke-width:1.0;"/><path d="M237.2188,32.5352 Q236.6406,32.832 236,32.9727 Q235.3594,33.1289 234.6563,33.1289 Q232.1563,33.1289 230.8281,31.4883 Q229.5156,29.832 229.5156,26.707 Q229.5156,23.582 230.8281,21.9258 Q232.1563,20.2695 234.6563,20.2695 Q235.3594,20.2695 236,20.4258 Q236.6563,20.582 237.2188,20.8789 L237.2188,23.5977 Q236.5938,23.0195 236,22.7539 Q235.4063,22.4727 234.7813,22.4727 Q233.4375,22.4727 232.75,23.5508 Q232.0625,24.6133 232.0625,26.707 Q232.0625,28.8008 232.75,29.8789 Q233.4375,30.9414 234.7813,30.9414 Q235.4063,30.9414 236,30.6758 Q236.5938,30.3945 237.2188,29.8164 L237.2188,32.5352 Z " fill="#000000"/><text fill="#D9B8FF" font-family="Helvetica" font-size="17" lengthAdjust="spacing" textLength="71" x="259.75" y="32.7798">resource</text><line style="stroke:#000D19;stroke-width:0.5;" x1="166.5" x2="391.5" y1="46.7891" y2="46.7891"/><text fill="#D9B8FF" font-family="sans-serif" font-size="14" font-weight="bold" lengthAdjust="spacing" textLength="29" x="176.5" y="68.7842">age</text><text fill="#D9B8FF" font-family="sans-serif" font-size="14" lengthAdjust="spacing" textLength="66" x="205.5" y="68.7842">: duration</text><text fill="#D9B8FF" font-family="sans-serif" font-size="14" font-weight="bold" lengthAdjust="spacing" textLength="43" x="176.5" y="95.0811">atime</text><text fill="#D9B8FF" font-family="sans-serif" font-size="14" lengthAdjust="spacing" textLength="70" x="219.5" y="95.0811">: datetime</text><text fill="#D9B8FF" font-family="sans-serif" font-size="14" font-weight="bold" lengthAdjust="spacing" textLength="43" x="176.5" y="121.3779">ctime</text><text fill="#D9B8FF" font-family="sans-serif" font-size="14" lengthAdjust="spacing" textLength="70" x="219.5" y="121.3779">: datetime</text><text fill="#D9B8FF" font-family="sans-serif" font-size="14" font-weight="bold" lengthAdjust="spacing" textLength="14" x="176.5" y="147.6748">id</text><text fill="#D9B8FF" font-family="sans-serif" font-size="14" lengthAdjust="spacing" textLength="48" x="190.5" y="147.6748">: string</text><text fill="#D9B8FF" font-family="sans-serif" font-size="14" font-weight="bold" lengthAdjust="spacing" textLength="33" x="176.5" y="173.9717">kind</text><text fill="#D9B8FF" font-family="sans-serif" font-size="14" lengthAdjust="spacing" textLength="48" x="209.5" y="173.9717">: string</text><text fill="#D9B8FF" font-family="sans-serif" font-size="14" font-weight="bold" lengthAdjust="spacing" textLength="90" x="176.5" y="200.2686">last_access</text><text fill="#D9B8FF" font-family="sans-serif" font-size="14" lengthAdjust="spacing" textLength="66" x="266.5" y="200.2686">: duration</text><text fill="#D9B8FF" font-family="sans-serif" font-size="14" font-weight="bold" lengthAdjust="spacing" textLength="90" x="176.5" y="226.5654">last_update</text><text fill="#D9B8FF" font-family="sans-serif" font-size="14" lengthAdjust="spacing" textLength="66" x="266.5" y="226.5654">: duration</text><text fill="#D9B8FF" font-family="sans-serif" font-size="14" font-weight="bold" lengthAdjust="spacing" textLength="48" x="176.5" y="252.8623">mtime</text><text fill="#D9B8FF" font-family="sans-serif" font-size="14" lengthAdjust="spacing" textLength="70" x="224.5" y="252.8623">: datetime</text><text fill="#D9B8FF" font-family="sans-serif" font-size="14" font-weight="bold" lengthAdjust="spacing" textLength="43" x="176.5" y="279.1592">name</text><text fill="#D9B8FF" font-family="sans-serif" font-size="14" lengthAdjust="spacing" textLength="48" x="219.5" y="279.1592">: string</text><text fill="#D9B8FF" font-family="sans-serif" font-size="14" font-weight="bold" lengthAdjust="spacing" textLength="34" x="176.5" y="305.4561">tags</text><text fill="#D9B8FF" font-family="sans-serif" font-size="14" lengthAdjust="spacing" textLength="171" x="210.5" y="305.4561">: dictionary[string, string]</text></g><!--link azure_network_express_route_ports_location to azure_express_route_ports_location_bandwidths--><g id="link_azure_network_express_route_ports_location_azure_express_route_ports_location_bandwidths"><path codeLine="51" d="M279,786.89 C279,806.53 279,821.93 279,840.54 " fill="none" id="azure_network_express_route_ports_location-to-azure_express_route_ports_location_bandwidths" style="stroke:#FFAF37;stroke-width:2.0;"/><polygon fill="#FFAF37" points="279,846.54,283,837.54,279,841.54,275,837.54,279,846.54" style="stroke:#FFAF37;stroke-width:2.0;"/></g><!--reverse link microsoft_resource to azure_network_express_route_ports_location--><g id="link_microsoft_resource_azure_network_express_route_ports_location"><path codeLine="52" d="M192.8535,555.5363 C210.9535,590.6163 227.11,621.93 246.58,659.65 " fill="none" id="microsoft_resource-backto-azure_network_express_route_ports_location" style="stroke:#FFAF37;stroke-width:2.0;"/><polygon fill="none" points="184.6,539.54,187.5214,558.2874,198.1856,552.7851,184.6,539.54" style="stroke:#FFAF37;stroke-width:2.0;"/></g><!--reverse link phantom_resource to azure_network_express_route_ports_location--><g id="link_phantom_resource_azure_network_express_route_ports_location"><path codeLine="53" d="M381.7921,524.9481 C364.8621,557.4881 337.93,609.22 311.66,659.71 " fill="none" id="phantom_resource-backto-azure_network_express_route_ports_location" style="stroke:#FFAF37;stroke-width:2.0;"/><polygon fill="none" points="390.1,508.98,376.4694,522.1788,387.1148,527.7174,390.1,508.98" style="stroke:#FFAF37;stroke-width:2.0;"/></g><!--reverse link resource to microsoft_resource--><g id="link_resource_microsoft_resource"><path codeLine="54" d="M215.5667,334.9426 C199.4467,378.5326 189.31,405.98 177.31,438.42 " fill="none" id="resource-backto-microsoft_resource" style="stroke:#FFAF37;stroke-width:2.0;"/><polygon fill="none" points="221.81,318.06,209.9391,332.8614,221.1942,337.0237,221.81,318.06" style="stroke:#FFAF37;stroke-width:2.0;"/></g><!--reverse link resource to phantom_resource--><g id="link_resource_phantom_resource"><path codeLine="55" d="M342.9565,334.9265 C365.2265,394.6765 381.73,438.95 392.92,468.96 " fill="none" id="resource-backto-phantom_resource" style="stroke:#FFAF37;stroke-width:2.0;"/><polygon fill="none" points="336.67,318.06,337.3343,337.022,348.5787,332.831,336.67,318.06" style="stroke:#FFAF37;stroke-width:2.0;"/></g><!--SRC=[bP9FQzj04CNl-XI2t4mDTjF6SIY5r53QIoXDRo4iezsHl5ZQ5RCZkqxRxzvTsGchFt7mpPxvwRqtCxlM2bEiQjwd5LOPaalSHfiQ2AhqbiZkLhQqb5xaEUINYtxpgpNy9d075QRViDmYQmbzujTQour1vzBtKUiBo4r1jZ7g8Cy4nlaM6eweLGdEtJAJpXh6A8nQPjTvtYVxeXUNQhwumW5cII4TaTbifkRBFlAcrScvNuXx_OJfF5xQdMKSn1nOjDJ9b868GWu6VUw_cl47AALDaNwCQZyFcSWWTUhtQr1s5-WSIXVRE4P2o_iQLuEfS7cjyiKe_FqrE95XTIayDOG2VzVatutm7AEeBR4JfPN0sXgHWL4xhNZjqZ_9P6Bp74aOF-raSkEToAVrvIsK3GfjH97LBdIquQiFoR-EZq7UMTgSz6jD_Ce2q760BUWIiXAZH04uQuI7Hwya_Rb0SgJ-7BFIagopEGilPXkIsCP1XgAJfIQxrSvB-x_2CJ2EYDLhC6ohMEgbrv67elrSDTJ63HNMX_qgBnr-XzGZDQqwiVm3w1Qy5mkGyhZBoA7jDBKwHeywrOZFuDn-8GT5BSDdGFk7G-_TaNdqevvnzEdqytc7J4PEzUdlT3ezuwabWmkThT3xSXYgJ_Gja_y0]--></g></svg>

<svg xmlns="http://www.w3.org/2000/svg" width="558" height="954" viewBox="0 0 558 954"><rect width="446" height="100.383" x="56" y="846.82" fill="#3D176E" rx="2.5" ry="2.5" style="stroke:#000d19;stroke-width:.5"/><circle cx="71" cy="866.715" r="11" fill="#ADD1B2" style="stroke:#181818;stroke-width:1"/><path d="M73.969 872.355q-.578.297-1.219.438-.64.156-1.344.156-2.5 0-3.828-1.64-1.312-1.657-1.312-4.782t1.312-4.781q1.328-1.656 3.828-1.656.703 0 1.344.156.656.156 1.219.453v2.719q-.625-.578-1.219-.844-.594-.281-1.219-.281-1.344 0-2.031 1.078-.687 1.062-.687 3.156t.687 3.172q.688 1.062 2.031 1.062.625 0 1.219-.265.594-.281 1.219-.86z"/><text x="90" y="872.6" fill="#D9B8FF" font-family="Helvetica" font-size="17" textLength="404">azure_express_route_ports_location_bandwidths</text><path d="M57 886.609h444" style="stroke:#000d19;stroke-width:.5"/><text x="67" y="908.604" fill="#D9B8FF" font-family="sans-serif" font-size="14" font-weight="bold" textLength="89">offer_name</text><text x="156" y="908.604" fill="#D9B8FF" font-family="sans-serif" font-size="14" textLength="48">: string</text><text x="67" y="934.901" fill="#D9B8FF" font-family="sans-serif" font-size="14" font-weight="bold" textLength="109">value_in_gbps</text><text x="176" y="934.901" fill="#D9B8FF" font-family="sans-serif" font-size="14" textLength="44">: int64</text><rect width="544" height="126.68" x="7" y="660.14" fill="#3D176E" rx="2.5" ry="2.5" style="stroke:#000d19;stroke-width:.5"/><circle cx="81.25" cy="680.034" r="11" fill="#ADD1B2" style="stroke:#181818;stroke-width:1"/><path d="M84.219 685.675q-.578.297-1.219.438-.64.156-1.344.156-2.5 0-3.828-1.64-1.312-1.657-1.312-4.782t1.312-4.781q1.328-1.657 3.828-1.657.703 0 1.344.157.656.156 1.219.453v2.719q-.625-.579-1.219-.844-.594-.281-1.219-.281-1.344 0-2.031 1.078-.687 1.062-.687 3.156t.687 3.172q.688 1.062 2.031 1.062.625 0 1.219-.265.594-.282 1.219-.86z"/><text x="106.75" y="685.92" fill="#D9B8FF" font-family="Helvetica" font-size="17" textLength="377">azure_network_express_route_ports_location</text><path d="M8 699.929h542" style="stroke:#000d19;stroke-width:.5"/><text x="18" y="721.924" fill="#D9B8FF" font-family="sans-serif" font-size="14" font-weight="bold" textLength="64">address</text><text x="82" y="721.924" fill="#D9B8FF" font-family="sans-serif" font-size="14" textLength="48">: string</text><text x="18" y="748.221" fill="#D9B8FF" font-family="sans-serif" font-size="14" font-weight="bold" textLength="167">available_bandwidths</text><text x="185" y="748.221" fill="#D9B8FF" font-family="sans-serif" font-size="14" textLength="355">: azure_express_route_ports_location_bandwidths[]</text><text x="18" y="774.518" fill="#D9B8FF" font-family="sans-serif" font-size="14" font-weight="bold" textLength="59">contact</text><text x="77" y="774.518" fill="#D9B8FF" font-family="sans-serif" font-size="14" textLength="48">: string</text><rect width="214" height="100.383" x="52" y="438.75" fill="#3D176E" rx="2.5" ry="2.5" style="stroke:#000d19;stroke-width:.5"/><circle cx="73.3" cy="458.644" r="11" fill="#ADD1B2" style="stroke:#181818;stroke-width:1"/><path d="M76.269 464.285q-.578.297-1.219.438-.64.156-1.344.156-2.5 0-3.828-1.64-1.312-1.657-1.312-4.782t1.312-4.781q1.328-1.656 3.828-1.656.703 0 1.344.156.656.156 1.219.453v2.719q-.625-.579-1.219-.844-.594-.281-1.219-.281-1.344 0-2.031 1.078-.687 1.062-.687 3.156t.687 3.172q.688 1.062 2.031 1.062.625 0 1.219-.265.594-.281 1.219-.86z"/><text x="93.7" y="464.53" fill="#D9B8FF" font-family="Helvetica" font-size="17" textLength="158">microsoft_resource</text><path d="M53 478.539h212" style="stroke:#000d19;stroke-width:.5"/><text x="63" y="500.534" fill="#D9B8FF" font-family="sans-serif" font-size="14" font-weight="bold" textLength="35">etag</text><text x="98" y="500.534" fill="#D9B8FF" font-family="sans-serif" font-size="14" textLength="48">: string</text><text x="63" y="526.831" fill="#D9B8FF" font-family="sans-serif" font-size="14" font-weight="bold" textLength="144">provisioning_state</text><text x="207" y="526.831" fill="#D9B8FF" font-family="sans-serif" font-size="14" textLength="48">: string</text><rect width="198" height="39.789" x="301" y="469.05" fill="#3D176E" rx="2.5" ry="2.5" style="stroke:#000d19;stroke-width:.5"/><circle cx="316" cy="488.945" r="11" fill="#ADD1B2" style="stroke:#181818;stroke-width:1"/><path d="M318.969 494.585q-.578.297-1.219.438-.64.156-1.344.156-2.5 0-3.828-1.64-1.312-1.657-1.312-4.782t1.312-4.781q1.328-1.656 3.828-1.656.703 0 1.344.156.656.156 1.219.453v2.719q-.625-.579-1.219-.844-.594-.281-1.219-.281-1.344 0-2.031 1.078-.687 1.062-.687 3.156t.687 3.172q.688 1.062 2.031 1.062.625 0 1.219-.265.594-.281 1.219-.86z"/><text x="335" y="494.83" fill="#D9B8FF" font-family="Helvetica" font-size="17" textLength="156">phantom_resource</text><rect width="227" height="310.758" x="165.5" y="7" fill="#3D176E" rx="2.5" ry="2.5" style="stroke:#000d19;stroke-width:.5"/><circle cx="234.25" cy="26.895" r="11" fill="#ADD1B2" style="stroke:#181818;stroke-width:1"/><path d="M237.219 32.535q-.578.297-1.219.438-.64.156-1.344.156-2.5 0-3.828-1.64-1.312-1.657-1.312-4.782t1.312-4.781q1.328-1.656 3.828-1.656.703 0 1.344.156.656.156 1.219.453v2.719q-.625-.578-1.219-.844-.594-.281-1.219-.281-1.344 0-2.031 1.078-.687 1.062-.687 3.156t.687 3.172q.688 1.062 2.031 1.062.625 0 1.219-.265.594-.281 1.219-.86z"/><text x="259.75" y="32.78" fill="#D9B8FF" font-family="Helvetica" font-size="17" textLength="71">resource</text><path d="M166.5 46.789h225" style="stroke:#000d19;stroke-width:.5"/><text x="176.5" y="68.784" fill="#D9B8FF" font-family="sans-serif" font-size="14" font-weight="bold" textLength="29">age</text><text x="205.5" y="68.784" fill="#D9B8FF" font-family="sans-serif" font-size="14" textLength="66">: duration</text><text x="176.5" y="95.081" fill="#D9B8FF" font-family="sans-serif" font-size="14" font-weight="bold" textLength="43">atime</text><text x="219.5" y="95.081" fill="#D9B8FF" font-family="sans-serif" font-size="14" textLength="70">: datetime</text><text x="176.5" y="121.378" fill="#D9B8FF" font-family="sans-serif" font-size="14" font-weight="bold" textLength="43">ctime</text><text x="219.5" y="121.378" fill="#D9B8FF" font-family="sans-serif" font-size="14" textLength="70">: datetime</text><text x="176.5" y="147.675" fill="#D9B8FF" font-family="sans-serif" font-size="14" font-weight="bold" textLength="14">id</text><text x="190.5" y="147.675" fill="#D9B8FF" font-family="sans-serif" font-size="14" textLength="48">: string</text><text x="176.5" y="173.972" fill="#D9B8FF" font-family="sans-serif" font-size="14" font-weight="bold" textLength="33">kind</text><text x="209.5" y="173.972" fill="#D9B8FF" font-family="sans-serif" font-size="14" textLength="48">: string</text><text x="176.5" y="200.269" fill="#D9B8FF" font-family="sans-serif" font-size="14" font-weight="bold" textLength="90">last_access</text><text x="266.5" y="200.269" fill="#D9B8FF" font-family="sans-serif" font-size="14" textLength="66">: duration</text><text x="176.5" y="226.565" fill="#D9B8FF" font-family="sans-serif" font-size="14" font-weight="bold" textLength="90">last_update</text><text x="266.5" y="226.565" fill="#D9B8FF" font-family="sans-serif" font-size="14" textLength="66">: duration</text><text x="176.5" y="252.862" fill="#D9B8FF" font-family="sans-serif" font-size="14" font-weight="bold" textLength="48">mtime</text><text x="224.5" y="252.862" fill="#D9B8FF" font-family="sans-serif" font-size="14" textLength="70">: datetime</text><text x="176.5" y="279.159" fill="#D9B8FF" font-family="sans-serif" font-size="14" font-weight="bold" textLength="43">name</text><text x="219.5" y="279.159" fill="#D9B8FF" font-family="sans-serif" font-size="14" textLength="48">: string</text><text x="176.5" y="305.456" fill="#D9B8FF" font-family="sans-serif" font-size="14" font-weight="bold" textLength="34">tags</text><text x="210.5" y="305.456" fill="#D9B8FF" font-family="sans-serif" font-size="14" textLength="171">: dictionary[string, string]</text><path fill="none" d="M279 786.89v53.65" style="stroke:#ffaf37;stroke-width:2"/><path fill="#FFAF37" d="m279 846.54 4-9-4 4-4-4z" style="stroke:#ffaf37;stroke-width:2"/><path fill="none" d="M192.854 555.536c18.1 35.08 34.256 66.394 53.726 104.114M184.6 539.54l2.921 18.747 10.665-5.502zm197.192-14.592c-16.93 32.54-43.862 84.272-70.132 134.762m78.44-150.73-13.63 13.199 10.645 5.538zM215.567 334.943c-16.12 43.59-26.257 71.037-38.257 103.477m44.5-120.36-11.87 14.801 11.254 4.163zm121.147 16.867c22.27 59.75 38.773 104.023 49.963 134.033m-56.25-150.9.664 18.962 11.245-4.191z" style="stroke:#ffaf37;stroke-width:2"/></svg>
